images/x.svg

<svg fill="none" height="857" viewBox="0 0 857 857" width="857" xmlns="http://www.w3.org/2000/svg"><path d="m756.709 856.5h-656.408c-55.1205 0-99.801-44.68-99.801-99.8v-656.4c0-55.12 44.6805-99.8 99.801-99.8h656.398c55.12 0 99.801 44.68 99.801 99.8v656.39c.01 55.13-44.671 99.81-99.791 99.81z" fill="#000" stroke="#fff" stroke-miterlimit="10"/><path d="m132 149.191 230.07 307.63-231.52 250.11h52.11l202.7-218.98 163.77 218.98h177.32l-243.02-324.93 215.5-232.81h-52.11l-186.67 201.67-150.83-201.67zm76.63 38.39h81.46l359.72 480.97h-81.46z" fill="#fff"/></svg>

<svg width="857" height="857" viewBox="0 0 857 857" fill="none" xmlns="http://www.w3.org/2000/svg">
<path d="M756.709 856.5H100.301C45.1805 856.5 0.5 811.82 0.5 756.7V100.3C0.5 45.18 45.1805 0.5 100.301 0.5H756.699C811.819 0.5 856.5 45.18 856.5 100.3V756.69C856.51 811.82 811.829 856.5 756.709 856.5Z" fill="black" stroke="white" stroke-miterlimit="10"/>
<path d="M132 149.191L362.07 456.821L130.55 706.931H182.66L385.36 487.951L549.13 706.931H726.45L483.43 382.001L698.93 149.191H646.82L460.15 350.861L309.32 149.191H132ZM208.63 187.581H290.09L649.81 668.551H568.35L208.63 187.581Z" fill="white"/>
</svg>
